swiss/communes/5198.svg

<svg xmlns="http://www.w3.org/2000/svg" xmlns:xlink="http://www.w3.org/1999/xlink" height="763" width="603" version="1.0"><defs><radialGradient xlink:href="#a" id="b" gradientUnits="userSpaceOnUse" gradientTransform="matrix(1.21503 0 0 1.26667 -839.192 -490.49)" cx="858.042" cy="579.933" fx="858.042" fy="579.933" r="300"/><linearGradient id="a"><stop style="stop-color:#fff;stop-opacity:.3137255" offset="0"/><stop offset=".19" style="stop-color:#fff;stop-opacity:.25098041"/><stop style="stop-color:#6b6b6b;stop-opacity:.1254902" offset=".6"/><stop style="stop-color:#000;stop-opacity:.1254902" offset="1"/></linearGradient></defs><g style="opacity:1"><path d="M1.5 1.5v458.868c0 166.311 134.314 301.132 300 301.132s300-134.821 300-301.132V1.5H1.5z" style="opacity:1;fill:#2b5df2"/></g><g style="opacity:1"><path d="M235.54 147.294c0 36.371 29.589 65.96 65.96 65.96 36.37 0 65.96-29.589 65.96-65.96 0-36.371-29.59-65.96-65.96-65.96-36.371 0-65.96 29.589-65.96 65.96zm27.56 0c0-21.174 17.227-38.4 38.4-38.4s38.4 17.227 38.4 38.4-17.228 38.4-38.4 38.4c-21.172 0-38.4-17.226-38.4-38.4z" style="fill:#fcef3c;stroke:#000;stroke-width:3;stroke-linecap:round;stroke-linejoin:round"/><path d="M497.724 359.686s-9.921 8.819-33.438 49.974c-23.518 41.156-32.979 89.661-32.979 89.661 14.606-14.607 31.876-20.21 31.876-20.21-23.354 58.385-74.227 67.245-108.032 40.053-33.807-27.192-30.132-96.275-32.337-172.707-2.204-76.432-8.084-167.93-8.084-167.93 0-7.306-5.923-13.229-13.229-13.229-7.306 0-13.229 5.922-13.229 13.229 0 0-5.879 91.498-8.084 167.93-2.205 76.431 1.47 145.514-32.336 172.707-33.807 27.192-84.678 18.332-108.034-40.053 0 0 17.271 5.603 31.877 20.21 0 0-9.461-48.505-32.979-89.661-23.518-41.155-33.439-49.974-33.439-49.974s-49.607 58.427-21.68 154.701c0 0 2.388-20.025 14.331-31.969 12.746 34.659 30.048 73.561 67.553 99.558 45.625 31.626 74.012 27.859 136.021 80.773 62.009-52.914 90.396-49.147 136.021-80.773 37.505-25.997 54.807-64.897 67.552-99.558 11.942 11.942 14.331 31.969 14.331 31.969 27.925-96.274-21.682-154.701-21.682-154.701z" style="fill:#fcef3c;stroke:#000;stroke-width:3;stroke-linecap:round;stroke-linejoin:round"/><path d="M391.291 240.629H211.708c-8.524 0-15.433 6.91-15.433 15.433 0 8.524 6.909 15.434 15.433 15.434h179.583c8.524 0 15.434-6.91 15.434-15.434 0-8.523-6.91-15.433-15.434-15.433z" style="fill:#fcef3c;stroke:#000;stroke-width:3;stroke-linecap:round;stroke-linejoin:round"/><path d="M399.495 513.95c-21.644-18.024-51.943-30.306-87.622-35.517-28.804-4.207-55.617-13.535-75.5-26.267C216.787 439.625 206 424.828 206 410.5c0-17.138 5.811-30.244 18.841-42.496 11.847-11.138 30.146-21.627 55.669-31.881.222-6.845.465-13.748.731-20.681C214.455 340.788 187 368.689 187 410.5c0 45.231 61.438 77.87 122.127 86.734 32.213 4.705 59.258 15.534 78.21 31.316 23.222 19.337 34.996 46.46 34.996 80.616 0 14.189-3.074 33.452-8.938 51.856l22.572-10.958c3.764-16.322 5.365-31.253 5.365-40.898.001-40.062-14.075-72.099-41.837-95.216zm-78.382-214.491a4133 4133 0 0 1 .816 20.518c53.01-23.392 76.07-51.168 76.07-90.144 0-31.24-22.22-48.763-35.871-56.582a66.093 66.093 0 0 1-9.926 16.179c9.918 5.536 26.797 18.215 26.797 40.403 0 17.341-5.836 31.221-18.365 43.681-9.233 9.182-22.286 17.763-39.521 25.945z" style="fill:#fcef3c;stroke:#000;stroke-width:3;stroke-linecap:round;stroke-linejoin:round"/></g><g style="display:inline"><path style="fill:url(#b);fill-opacity:1" d="M1.5 1.5v458.868c0 166.31 134.315 301.132 300 301.132s300-134.821 300-301.132V1.5H1.5z"/></g><g style="display:inline"><path style="fill:none;fill-opacity:1;stroke:#000;stroke-width:3;stroke-miterlimit:4;stroke-dasharray:none;stroke-opacity:1" d="M1.5 1.5v458.868c0 166.31 134.315 301.132 300 301.132s300-134.821 300-301.132V1.5H1.5z"/></g></svg>

<?xml version="1.0" encoding="UTF-8" standalone="no"?>
<svg
   xmlns:dc="http://purl.org/dc/elements/1.1/"
   xmlns:cc="http://creativecommons.org/ns#"
   xmlns:rdf="http://www.w3.org/1999/02/22-rdf-syntax-ns#"
   xmlns:svg="http://www.w3.org/2000/svg"
   xmlns="http://www.w3.org/2000/svg"
   xmlns:xlink="http://www.w3.org/1999/xlink"
   xmlns:sodipodi="http://sodipodi.sourceforge.net/DTD/sodipodi-0.dtd"
   xmlns:inkscape="http://www.inkscape.org/namespaces/inkscape"
   height="763"
   width="603"
   version="1.0"
   id="svg20"
   sodipodi:version="0.32"
   inkscape:version="0.46"
   sodipodi:docname="Melide-coat_of_arms.svg"
   sodipodi:docbase="C:\Documents and Settings\Steve\Bureau\Blason Villages Suisse pour Wikipédia (par Delta-9)"
   inkscape:output_extension="org.inkscape.output.svg.inkscape">
  <metadata
     id="metadata31">
    <rdf:RDF>
      <cc:Work
         rdf:about="">
        <dc:format>image/svg+xml</dc:format>
        <dc:type
           rdf:resource="http://purl.org/dc/dcmitype/StillImage" />
        <dc:date>07-AUG-2006</dc:date>
        <dc:creator>
          <cc:Agent>
            <dc:title>Jérôme BLUM (wagner51)</dc:title>
          </cc:Agent>
        </dc:creator>
        <cc:license
           rdf:resource="http://creativecommons.org/licenses/GPL/2.0/" />
        <dc:coverage />
        <dc:description>Gabarit pour le Projet:Blasons de WIkipédia</dc:description>
        <dc:subject>
          <rdf:Bag>
            <rdf:li>blason suisse modèle gabarit projet blasons</rdf:li>
          </rdf:Bag>
        </dc:subject>
        <dc:language>fr</dc:language>
        <dc:title>Gabrit d'un blason suisse</dc:title>
      </cc:Work>
      <cc:License
         rdf:about="http://creativecommons.org/licenses/GPL/2.0/">
        <cc:permits
           rdf:resource="http://web.resource.org/cc/Reproduction" />
        <cc:permits
           rdf:resource="http://web.resource.org/cc/Distribution" />
        <cc:requires
           rdf:resource="http://web.resource.org/cc/Notice" />
        <cc:permits
           rdf:resource="http://web.resource.org/cc/DerivativeWorks" />
        <cc:requires
           rdf:resource="http://web.resource.org/cc/ShareAlike" />
        <cc:requires
           rdf:resource="http://web.resource.org/cc/SourceCode" />
      </cc:License>
    </rdf:RDF>
  </metadata>
  <defs
     id="defs29"><inkscape:perspective
   sodipodi:type="inkscape:persp3d"
   inkscape:vp_x="0 : 381.5 : 1"
   inkscape:vp_y="0 : 1000 : 0"
   inkscape:vp_z="603 : 381.5 : 1"
   inkscape:persp3d-origin="301.5 : 254.33333 : 1"
   id="perspective28" />
<linearGradient
   id="linearGradient2893">
  <stop
     style="stop-color:#ffffff;stop-opacity:0.3137255;"
     offset="0"
     id="stop2895" />
  <stop
     id="stop2897"
     offset="0.19"
     style="stop-color:#ffffff;stop-opacity:0.25098041;" />
  <stop
     style="stop-color:#6b6b6b;stop-opacity:0.1254902;"
     offset="0.60000002"
     id="stop2901" />
  <stop
     style="stop-color:#000000;stop-opacity:0.1254902;"
     offset="1"
     id="stop2899" />
</linearGradient>
<linearGradient
   id="linearGradient2955">
  <stop
     style="stop-color:white;stop-opacity:0;"
     offset="0"
     id="stop2965" />
  <stop
     style="stop-color:black;stop-opacity:0.64583331;"
     offset="1"
     id="stop2959" />
</linearGradient>
<radialGradient
   inkscape:collect="always"
   xlink:href="#linearGradient2893"
   id="radialGradient3236"
   gradientUnits="userSpaceOnUse"
   gradientTransform="matrix(1.215027,1.531577e-24,1.464684e-23,1.266667,-839.1924,-490.4894)"
   cx="858.04236"
   cy="579.93323"
   fx="858.04236"
   fy="579.93323"
   r="300" />
<inkscape:perspective
   id="perspective2471"
   inkscape:persp3d-origin="306 : 264 : 1"
   inkscape:vp_z="612 : 396 : 1"
   inkscape:vp_y="0 : 1000 : 0"
   inkscape:vp_x="0 : 396 : 1"
   sodipodi:type="inkscape:persp3d" />

	
	
	
	

	
</defs>
  <sodipodi:namedview
     inkscape:window-height="691"
     inkscape:window-width="939"
     inkscape:pageshadow="2"
     inkscape:pageopacity="0.0"
     guidetolerance="10.0"
     gridtolerance="10.0"
     objecttolerance="10.0"
     borderopacity="1.0"
     bordercolor="#666666"
     pagecolor="#ffffff"
     id="base"
     inkscape:zoom="0.50740865"
     inkscape:cx="340.42569"
     inkscape:cy="380.81518"
     inkscape:window-x="1337"
     inkscape:window-y="81"
     inkscape:current-layer="layer2"
     showgrid="false"
     showguides="true"
     inkscape:guide-bbox="true">
    <sodipodi:guide
       orientation="horizontal"
       position="761.5"
       id="guide1885" />
    <sodipodi:guide
       orientation="vertical"
       position="1.5"
       id="guide1887" />
    <sodipodi:guide
       orientation="horizontal"
       position="1.5"
       id="guide1889" />
    <sodipodi:guide
       orientation="vertical"
       position="601.5"
       id="guide1891" />
    <sodipodi:guide
       orientation="vertical"
       position="301.50081"
       id="guide1893" />
  </sodipodi:namedview>
  <desc
     id="desc22">Coat of Arms of Canton of Freiburg (Fribourg)</desc>
  <g
     inkscape:groupmode="layer"
     id="layer1"
     inkscape:label="Fond écu"
     style="opacity:1"
     sodipodi:insensitive="true">
    <path
       d="M 1.5000026,1.5 L 1.5000026,460.368 C 1.5000026,626.679 135.814,761.5 301.5,761.5 C 467.186,761.5 601.5,626.679 601.5,460.368 L 601.5,1.5 L 1.5000026,1.5 z"
       id="path2486"
       style="opacity:1;fill:#2b5df2" />
  </g>
  <g
     inkscape:groupmode="layer"
     id="layer2"
     inkscape:label="Meubles"
     style="opacity:1"
     sodipodi:insensitive="true">
    <path
       d="M 235.54,147.294 C 235.54,183.665 265.129,213.254 301.5,213.254 C 337.87,213.254 367.46,183.665 367.46,147.294 C 367.46,110.923 337.87,81.334 301.5,81.334 C 265.129,81.334 235.54,110.923 235.54,147.294 z M 263.1,147.294 C 263.1,126.12 280.327,108.894 301.5,108.894 C 322.673,108.894 339.9,126.121 339.9,147.294 C 339.9,168.467 322.672,185.694 301.5,185.694 C 280.328,185.694 263.1,168.468 263.1,147.294 z"
       id="path2468"
       style="fill:#fcef3c;stroke:#000000;stroke-width:3;stroke-linecap:round;stroke-linejoin:round" />
    <path
       d="M 497.724,359.686 C 497.724,359.686 487.803,368.505 464.286,409.66 C 440.768,450.816 431.307,499.321 431.307,499.321 C 445.913,484.714 463.183,479.111 463.183,479.111 C 439.829,537.496 388.956,546.356 355.151,519.164 C 321.344,491.972 325.019,422.889 322.814,346.457 C 320.61,270.025 314.73,178.527 314.73,178.527 C 314.73,171.221 308.807,165.298 301.501,165.298 C 294.195,165.298 288.272,171.22 288.272,178.527 C 288.272,178.527 282.393,270.025 280.188,346.457 C 277.983,422.888 281.658,491.971 247.852,519.164 C 214.045,546.356 163.174,537.496 139.818,479.111 C 139.818,479.111 157.089,484.714 171.695,499.321 C 171.695,499.321 162.234,450.816 138.716,409.66 C 115.198,368.505 105.277,359.686 105.277,359.686 C 105.277,359.686 55.670003,418.113 83.597003,514.387 C 83.597003,514.387 85.985003,494.362 97.928,482.418 C 110.674,517.077 127.976,555.979 165.481,581.976 C 211.106,613.602 239.493,609.835 301.502,662.749 C 363.511,609.835 391.898,613.602 437.523,581.976 C 475.028,555.979 492.33,517.079 505.075,482.418 C 517.017,494.36 519.406,514.387 519.406,514.387 C 547.331,418.113 497.724,359.686 497.724,359.686 z"
       id="path2470"
       style="fill:#fcef3c;stroke:#000000;stroke-width:3;stroke-linecap:round;stroke-linejoin:round" />
    <path
       d="M 391.291,240.629 L 211.708,240.629 C 203.184,240.629 196.275,247.539 196.275,256.062 C 196.275,264.586 203.184,271.496 211.708,271.496 L 391.291,271.496 C 399.815,271.496 406.725,264.586 406.725,256.062 C 406.725,247.539 399.815,240.629 391.291,240.629 z"
       id="path2472"
       style="fill:#fcef3c;stroke:#000000;stroke-width:3;stroke-linecap:round;stroke-linejoin:round" />
    <path
       id="path2464"
       d="M 399.495,513.95 C 377.851,495.926 347.552,483.644 311.873,478.433 C 283.069,474.226 256.256,464.898 236.373,452.166 C 216.787,439.625 206,424.828 206,410.5 C 206,393.362 211.811,380.256 224.841,368.004 C 236.688,356.866 254.987,346.377 280.51,336.123 C 280.732,329.278 280.975,322.375 281.241,315.442 C 214.455,340.788 187,368.689 187,410.5 C 187,455.731 248.438,488.37 309.127,497.234 C 341.34,501.939 368.385,512.768 387.337,528.55 C 410.559,547.887 422.333,575.01 422.333,609.166 C 422.333,623.355 419.259,642.618 413.395,661.022 L 435.967,650.064 C 439.731,633.742 441.332,618.811 441.332,609.166 C 441.333,569.104 427.257,537.067 399.495,513.95 z M 321.113,299.459 C 321.4,306.28 321.675,313.13 321.929,319.977 C 374.939,296.585 397.999,268.809 397.999,229.833 C 397.999,198.593 375.779,181.07 362.128,173.251 C 359.601,179.132 356.243,184.574 352.202,189.43 C 362.12,194.966 378.999,207.645 378.999,229.833 C 378.999,247.174 373.163,261.054 360.634,273.514 C 351.401,282.696 338.348,291.277 321.113,299.459 z"
       style="fill:#fcef3c;stroke:#000000;stroke-width:3;stroke-linecap:round;stroke-linejoin:round" />
  </g>
  <g
     inkscape:groupmode="layer"
     id="layer3"
     inkscape:label="Reflet final"
     style="display:inline"
     sodipodi:insensitive="true">
    <path
       style="fill:url(#radialGradient3236);fill-opacity:1"
       d="M 1.5,1.5 L 1.5,460.3679 C 1.5,626.67854 135.81454,761.5 301.49993,761.5 C 467.1854,761.5 601.5,626.67854 601.5,460.3679 L 601.5,1.5 L 1.5,1.5 z "
       id="path2346" />
  </g>
  <g
     inkscape:groupmode="layer"
     id="layer4"
     inkscape:label="Contour final"
     style="display:inline"
     sodipodi:insensitive="true">
    <path
       style="fill:none;fill-opacity:1;stroke:#000000;stroke-width:3;stroke-miterlimit:4;stroke-dasharray:none;stroke-opacity:1"
       d="M 1.5,1.5 L 1.5,460.36794 C 1.5,626.67854 135.81454,761.5 301.49993,761.5 C 467.1854,761.5 601.5,626.67854 601.5,460.36794 L 601.5,1.5 L 1.5,1.5 z "
       id="path3239" />
  </g>
</svg>
